src/assets/ethnicity.svg

<svg fill="none" height="262" viewBox="0 0 262 262" width="262" xmlns="http://www.w3.org/2000/svg"><path d="m131.223 131.159v-130.403995c72.019 0 130.403 58.383995 130.403 130.403995 0 70.923-56.683 128.842-127.589 130.373z" fill="#ea346c"/><path d="m131.223 131.159 2.814 130.373c-30.59.66-60.4382-9.457-84.3212-28.581z" fill="#fec2d4"/><path d="m131.223 131.159-81.5067 101.792c-6.491-5.198-12.47-11.004-17.855-17.339z" fill="#c53b65"/><path d="m131.222 131.159-99.3605 84.453c-15.37-18.083-25.51306-40.017-29.33806-63.439z" fill="#ff7aa3"/><path d="m131.223 131.159-128.69894 21.014c-1.34-8.206-1.891992-16.522-1.648992-24.833z" fill="#8a2a47"/><path d="m131.223 131.159-130.348-3.819c.639-21.814 6.74298-43.119 17.751-61.963z" fill="#c53b65"/><path d="m131.223 131.159-112.596-65.782c6.774-11.594 15.2969-22.072 25.2699-31.064z" fill="#ea346c"/><path d="m131.224 131.159-87.3275-96.846c23.956-21.602 55.069-33.557995 87.3275-33.557995z" fill="#ff709c"/></svg>

<svg width="262" height="262" viewBox="0 0 262 262" fill="none" xmlns="http://www.w3.org/2000/svg">
<path d="M131.223 131.159V0.755005C203.242 0.755005 261.626 59.139 261.626 131.159C261.626 202.082 204.943 260.001 134.037 261.532L131.223 131.159Z" fill="#EA346C"/>
<path d="M131.223 131.159L134.037 261.532C103.447 262.192 73.5988 252.075 49.7158 232.951L131.223 131.159Z" fill="#FEC2D4"/>
<path d="M131.223 131.159L49.7163 232.951C43.2253 227.753 37.2463 221.947 31.8613 215.612L131.223 131.159Z" fill="#C53B65"/>
<path d="M131.222 131.159L31.8615 215.612C16.4915 197.529 6.34844 175.595 2.52344 152.173L131.222 131.159Z" fill="#FF7AA3"/>
<path d="M131.223 131.159L2.52406 152.173C1.18406 143.967 0.632068 135.651 0.875068 127.34L131.223 131.159Z" fill="#8A2A47"/>
<path d="M131.223 131.159L0.875 127.34C1.514 105.526 7.61798 84.221 18.626 65.377L131.223 131.159Z" fill="#C53B65"/>
<path d="M131.223 131.159L18.627 65.377C25.401 53.783 33.9239 43.305 43.8969 34.313L131.223 131.159Z" fill="#EA346C"/>
<path d="M131.224 131.159L43.8965 34.313C67.8525 12.711 98.9655 0.755005 131.224 0.755005V131.159Z" fill="#FF709C"/>
</svg>
